libs/ui/packages/crypto-icons/src/svg/NCASH.svg

<svg width="24" height="24" viewBox="0 0 24 24" fill="none">
<path fill-rule="evenodd" clip-rule="evenodd" d="M19.7327 13.8561C19.8647 13.9138 19.9135 14.0931 19.8422 14.2566C19.8209 14.3108 19.7859 14.3585 19.7405 14.3949C19.6951 14.4313 19.641 14.4553 19.5835 14.4643L17.9147 17.5416C17.9294 17.6103 17.926 17.6817 17.9047 17.7486C17.8834 17.8156 17.8449 17.8758 17.7932 17.9233C17.752 17.9664 17.7018 18 17.6462 18.0216C17.5906 18.0432 17.531 18.0525 17.4715 18.0486L14.2172 19.9971C14.1919 20.0612 14.1502 20.1176 14.0962 20.1605C14.0422 20.2034 13.9779 20.2314 13.9097 20.2416C13.7492 20.2723 13.5962 20.2138 13.5227 20.1051L9.69921 19.8373C9.65167 19.8736 9.59661 19.8987 9.53808 19.9109C9.47955 19.9231 9.41903 19.9221 9.36096 19.9078C9.17196 19.8666 9.04146 19.7158 9.04896 19.5606L6.09471 17.4291C6.033 17.4402 5.96954 17.4364 5.90956 17.4181C5.84959 17.3999 5.7948 17.3677 5.74971 17.3241C5.62071 17.2071 5.57421 17.0368 5.62371 16.9078L4.40871 14.0901C4.27596 14.0638 4.16121 13.9333 4.13121 13.7608C4.10646 13.6056 4.15746 13.4593 4.25271 13.3813L4.43196 9.11609C4.39161 9.06109 4.36567 8.99686 4.3565 8.92927C4.34733 8.86167 4.35522 8.79286 4.37946 8.72909C4.43946 8.55434 4.58421 8.44409 4.72671 8.45159L7.91571 5.11034C7.88796 4.95284 8.00796 4.78559 8.19621 4.72634C8.25462 4.70642 8.31685 4.70032 8.37801 4.70852C8.43918 4.71672 8.49761 4.73899 8.54871 4.77359L13.1372 3.93959C13.1965 3.80459 13.3645 3.72509 13.546 3.75734C13.711 3.78584 13.8347 3.89909 13.864 4.02959L15.9835 5.23859C16.0422 5.21982 16.1044 5.21398 16.1656 5.22149C16.2268 5.229 16.2857 5.24967 16.3382 5.28209C16.396 5.31574 16.4454 5.36215 16.4826 5.41778C16.5198 5.47341 16.5437 5.53679 16.5527 5.60309L17.4647 6.21659C17.5235 6.20064 17.5853 6.19843 17.6451 6.21013C17.7049 6.22184 17.7612 6.24714 17.8097 6.28409C17.9807 6.40709 18.0422 6.62159 17.9447 6.76409L17.9387 6.77159L19.276 9.38159C19.4035 9.36434 19.534 9.46334 19.5805 9.62009C19.6315 9.79184 19.561 9.96659 19.4245 10.0101C19.2872 10.0551 19.135 9.95159 19.0847 9.78059L19.0757 9.74309L16.324 8.26934C16.2801 8.33096 16.2206 8.37966 16.1515 8.41034V15.7558C16.2413 15.7955 16.3147 15.8651 16.359 15.9527C16.4033 16.0404 16.4158 16.1407 16.3945 16.2366L17.512 17.3751C17.5692 17.3508 17.6318 17.342 17.6935 17.3496L19.381 14.3676C19.3519 14.3196 19.3352 14.2651 19.3324 14.2091C19.3297 14.153 19.3409 14.0972 19.3652 14.0466C19.4365 13.8831 19.6015 13.7983 19.7327 13.8561ZM19.7357 14.2123C19.7642 14.1463 19.744 14.0751 19.6915 14.0518C19.639 14.0293 19.573 14.0631 19.5445 14.1283C19.516 14.1936 19.5355 14.2648 19.5887 14.2888C19.6412 14.3113 19.7065 14.2776 19.7357 14.2123ZM17.737 17.8063C17.797 17.7463 17.8075 17.6578 17.7602 17.6083C17.713 17.5588 17.626 17.5671 17.5652 17.6263C17.5052 17.6863 17.4947 17.7756 17.542 17.8251C17.5892 17.8746 17.677 17.8663 17.737 17.8063ZM17.2652 17.6188L17.2735 17.6008L16.2017 16.5103C16.1376 16.5504 16.0636 16.5717 15.988 16.5718C15.9092 16.5717 15.8321 16.549 15.7658 16.5065C15.6995 16.4639 15.6467 16.4034 15.6137 16.3318H14.1752C14.138 16.41 14.0778 16.4749 14.0027 16.5178L14.143 18.5481C14.1985 18.5721 14.248 18.6066 14.2855 18.6493L17.2652 17.6188ZM14.1392 19.7083L16.7395 18.1513L14.3695 18.9703C14.3538 19.0296 14.3243 19.0843 14.2835 19.13C14.2428 19.1758 14.1918 19.2112 14.1347 19.2336L14.0627 19.6566C14.0905 19.6702 14.1163 19.6876 14.1392 19.7083ZM13.8955 20.1118C13.978 20.0968 14.0342 20.0293 14.0222 19.9603C14.0102 19.8928 13.9322 19.8493 13.8497 19.8658C13.768 19.8808 13.711 19.9483 13.723 20.0166C13.7357 20.0848 13.813 20.1276 13.8955 20.1118ZM13.5175 19.8133C13.5672 19.7313 13.645 19.67 13.7365 19.6408L13.8047 19.2396C13.7439 19.217 13.6892 19.1805 13.645 19.1331L10.6615 19.6146L13.5175 19.8133ZM10.7267 16.5613L9.75621 19.4241L13.5182 18.8166L10.8565 16.5066C10.8166 16.5321 10.7728 16.5506 10.7267 16.5613ZM9.47796 19.2276L10.4035 16.4983C10.3425 16.4561 10.2938 16.3983 10.2625 16.3311H8.57046C8.56005 16.3519 8.54828 16.3719 8.53521 16.3911L9.47796 19.2276ZM9.36321 19.7788C9.44571 19.7968 9.52371 19.7563 9.53721 19.6888C9.55221 19.6213 9.49746 19.5516 9.41496 19.5328C9.33246 19.5156 9.25446 19.5553 9.24021 19.6228C9.22596 19.6918 9.28071 19.7608 9.36321 19.7788ZM6.29796 17.2198L9.15171 19.2793L8.25021 16.5673C8.1852 16.5758 8.11911 16.5687 8.05742 16.5465C7.99572 16.5243 7.9402 16.4878 7.89546 16.4398L6.30321 17.1336C6.30549 17.1624 6.30398 17.1914 6.29871 17.2198H6.29796ZM6.03096 16.7713C6.07153 16.7892 6.10939 16.8127 6.14346 16.8411L7.78071 16.1286C7.78395 16.0475 7.80994 15.9691 7.85571 15.9021L5.32371 13.2853L6.03096 16.7713ZM6.01371 17.2281C6.05871 17.1771 6.04371 17.0886 5.98146 17.0316C5.91846 16.9753 5.83146 16.9708 5.78646 17.0226C5.74146 17.0751 5.75496 17.1636 5.81796 17.2198C5.88096 17.2761 5.96871 17.2798 6.01296 17.2281H6.01371ZM4.67121 13.9783L5.54271 15.9981L4.95846 13.1196L4.72821 13.6101C4.7469 13.6718 4.75148 13.737 4.74162 13.8007C4.73175 13.8644 4.70769 13.9252 4.67121 13.9783ZM4.65021 10.7233L4.54521 13.2373L4.75371 12.7948C4.71928 12.7295 4.70275 12.6563 4.70578 12.5825C4.70881 12.5088 4.7313 12.4371 4.77096 12.3748L4.65021 10.7233ZM4.50021 8.73509C4.47171 8.81609 4.50246 8.90009 4.56621 8.92334C4.63071 8.94584 4.70421 8.89934 4.73196 8.81834C4.75971 8.73734 4.73046 8.65334 4.66596 8.63009C4.60146 8.60759 4.52796 8.65409 4.49946 8.73509H4.50021ZM5.13321 12.5998C5.13321 12.5143 5.07096 12.4453 4.99596 12.4453C4.92021 12.4453 4.85796 12.5143 4.85796 12.5998C4.85796 12.6861 4.92021 12.7551 4.99596 12.7551C5.07096 12.7551 5.13321 12.6861 5.13321 12.5998ZM4.96071 8.93534C4.93958 8.99904 4.90448 9.05721 4.85796 9.10559L5.07546 12.0981L6.41046 7.87634L4.98171 8.84609C4.97751 8.87643 4.97048 8.90631 4.96071 8.93534ZM7.23021 6.24659L5.40471 8.15909L6.33996 7.52459C6.35252 7.43918 6.3895 7.35922 6.44646 7.29434C6.50509 7.22466 6.58445 7.17552 6.67296 7.15409L7.23021 6.24659ZM8.17071 5.34134L6.98046 7.27784C7.00921 7.33135 7.02173 7.39208 7.01646 7.45259L7.89771 7.72334C7.94374 7.674 8.00124 7.6368 8.06511 7.61504C8.12898 7.59328 8.19724 7.58765 8.26382 7.59863C8.33039 7.60962 8.39322 7.63688 8.44672 7.678C8.50022 7.71913 8.54272 7.77283 8.57046 7.83434H10.0457C10.0731 7.77554 10.1137 7.72392 10.1645 7.68357C10.2153 7.64321 10.2748 7.61523 10.3382 7.60184L11.14 5.89634C11.0967 5.83946 11.0684 5.77269 11.0575 5.70209L8.60646 5.15909C8.55091 5.23983 8.46939 5.29912 8.37546 5.32709C8.30936 5.34824 8.23918 5.35338 8.17071 5.34209V5.34134ZM8.21421 4.85159C8.13396 4.87634 8.08521 4.95059 8.10471 5.01659C8.12496 5.08334 8.20596 5.11634 8.28546 5.09159C8.36571 5.06684 8.41521 4.99259 8.39496 4.92659C8.37546 4.85984 8.29521 4.82609 8.21421 4.85159ZM12.9002 4.27859L9.20121 4.95209L11.1362 5.38034C11.1884 5.30903 11.2622 5.25643 11.3466 5.23036C11.4311 5.20428 11.5216 5.20612 11.605 5.23559L12.9002 4.27859ZM13.354 4.35134L11.9747 5.37134L15.7585 5.47634L15.7667 5.44784L13.7612 4.30484C13.7156 4.3383 13.6634 4.3619 13.6082 4.37417C13.5529 4.38643 13.4957 4.38709 13.4402 4.37609C13.4107 4.37079 13.3818 4.36249 13.354 4.35134ZM13.5325 3.88709C13.45 3.87209 13.3727 3.91559 13.3615 3.98459C13.3502 4.05209 13.4065 4.11959 13.4897 4.13459C13.5722 4.14959 13.6487 4.10609 13.6607 4.03709C13.6727 3.96959 13.615 3.90209 13.5325 3.88709ZM15.9572 5.93084C15.906 5.89922 15.8614 5.85795 15.826 5.80934L11.8787 5.69984C11.8757 5.7233 11.8704 5.7464 11.863 5.76884L13.456 7.60559C13.548 7.58559 13.6441 7.5974 13.7286 7.63909C13.813 7.68077 13.8808 7.74987 13.921 7.83509H15.6137C15.655 7.74709 15.7255 7.67608 15.8132 7.63409L15.9572 5.93084ZM15.9872 7.84934C15.8965 7.84934 15.8222 7.92584 15.8222 8.01959C15.8222 8.11334 15.8965 8.18909 15.9872 8.18909C16.0795 8.18909 16.1545 8.11334 16.1545 8.01959C16.1545 7.92584 16.0795 7.84934 15.988 7.84934H15.9872ZM16.0615 5.44934C16.0202 5.52134 16.051 5.61884 16.1305 5.66534C16.2092 5.71334 16.3075 5.69309 16.348 5.62034C16.39 5.54834 16.3592 5.45159 16.2797 5.40434C16.2002 5.35709 16.1027 5.37734 16.0615 5.44934ZM18.9977 9.43784L16.2775 5.99759L16.1402 7.62434C16.213 7.65413 16.2761 7.70357 16.3225 7.76714C16.3688 7.83071 16.3966 7.9059 16.4027 7.98434L18.9977 9.43784ZM17.278 6.44009L16.6675 6.03059L18.6377 8.59559L17.6792 6.88034C17.5991 6.87412 17.5222 6.84583 17.4572 6.79859C17.3297 6.70784 17.2622 6.56609 17.2772 6.44009H17.278ZM17.563 6.39734C17.524 6.45434 17.548 6.53984 17.617 6.58934C17.6852 6.63809 17.773 6.63209 17.812 6.57434C17.851 6.51809 17.827 6.43184 17.7587 6.38309C17.689 6.33434 17.602 6.34034 17.5637 6.39809L17.563 6.39734ZM13.3855 8.01959C13.3855 8.11109 13.4567 8.18534 13.5475 8.18534C13.591 8.18475 13.6325 8.167 13.6629 8.13596C13.6934 8.10492 13.7104 8.0631 13.7102 8.01959C13.7106 7.97596 13.6937 7.93394 13.6632 7.90274C13.6327 7.87154 13.5911 7.85369 13.5475 7.85309C13.5038 7.85369 13.4622 7.87154 13.4317 7.90274C13.4012 7.93394 13.3843 7.97596 13.3847 8.01959H13.3855ZM13.4747 11.5993C13.4526 11.5995 13.4308 11.6041 13.4105 11.6127C13.3902 11.6213 13.3718 11.6339 13.3564 11.6496C13.3409 11.6653 13.3287 11.684 13.3204 11.7044C13.3122 11.7249 13.308 11.7468 13.3082 11.7688C13.3082 11.8626 13.3832 11.9391 13.4747 11.9391C13.4968 11.9388 13.5186 11.9342 13.5388 11.9254C13.5591 11.9167 13.5775 11.9041 13.5928 11.8883C13.6082 11.8725 13.6204 11.8538 13.6285 11.8333C13.6367 11.8128 13.6408 11.7909 13.6405 11.7688C13.6408 11.7468 13.6367 11.7249 13.6285 11.7045C13.6203 11.684 13.6082 11.6654 13.5928 11.6497C13.5774 11.6339 13.559 11.6213 13.5388 11.6127C13.5185 11.6041 13.4967 11.5995 13.4747 11.5993ZM11.302 5.58134C11.302 5.67509 11.3762 5.75084 11.4677 5.75084C11.4898 5.75065 11.5116 5.74611 11.5319 5.73748C11.5522 5.72886 11.5706 5.71632 11.5861 5.70058C11.6015 5.68484 11.6137 5.66621 11.622 5.64575C11.6303 5.62529 11.6344 5.6034 11.6342 5.58134C11.6342 5.48759 11.5592 5.41109 11.4677 5.41109C11.4456 5.41139 11.4239 5.41602 11.4036 5.42474C11.3833 5.43345 11.365 5.44608 11.3496 5.46188C11.3342 5.47769 11.3221 5.49638 11.3139 5.51688C11.3057 5.53737 11.3017 5.55928 11.302 5.58134ZM11.4235 6.05909L10.663 7.67534C10.748 7.73783 10.8068 7.82965 10.828 7.93301C10.8492 8.03638 10.8313 8.14393 10.7777 8.23484L13.3127 11.3773C13.336 11.3677 13.3601 11.3602 13.3847 11.3548V8.41034C13.3291 8.38612 13.2793 8.35025 13.2387 8.30516C13.1981 8.26008 13.1677 8.20681 13.1494 8.14896C13.1311 8.0911 13.1255 8.03001 13.1328 7.96978C13.1402 7.90956 13.1603 7.85161 13.192 7.79984L11.647 6.01934C11.5776 6.05312 11.5002 6.06689 11.4235 6.05909ZM10.2535 8.01959C10.2535 8.11334 10.3285 8.18909 10.42 8.18909C10.5107 8.18909 10.5857 8.11334 10.5857 8.01959C10.5857 7.92584 10.5107 7.84934 10.42 7.84934C10.3753 7.84994 10.3328 7.86818 10.3016 7.90009C10.2704 7.932 10.2531 7.97497 10.2535 8.01959ZM8.03346 8.01959C8.03346 8.11109 8.10546 8.18534 8.19546 8.18534C8.28546 8.18534 8.35821 8.11109 8.35821 8.01959C8.35821 7.92734 8.28546 7.85309 8.19546 7.85309C8.10546 7.85309 8.03346 7.92809 8.03346 8.01959ZM8.19546 15.9771C8.1735 15.9774 8.1518 15.982 8.13162 15.9907C8.11144 15.9994 8.09317 16.0119 8.07785 16.0277C8.06253 16.0434 8.05046 16.062 8.04233 16.0824C8.03419 16.1028 8.03016 16.1246 8.03046 16.1466C8.03046 16.2403 8.10396 16.3161 8.19546 16.3161C8.21752 16.3159 8.23933 16.3114 8.25964 16.3027C8.27994 16.2941 8.29835 16.2816 8.31382 16.2658C8.32928 16.2501 8.34149 16.2315 8.34975 16.211C8.35801 16.1905 8.36216 16.1687 8.36196 16.1466C8.36226 16.1245 8.35818 16.1026 8.34995 16.0821C8.34173 16.0616 8.32952 16.0429 8.31404 16.0271C8.29856 16.0114 8.28011 15.9988 8.25976 15.9903C8.2394 15.9817 8.21755 15.9772 8.19546 15.9771ZM6.54846 7.38209C6.49371 7.44659 6.48921 7.53584 6.54096 7.58159C6.59121 7.62659 6.67746 7.61309 6.73296 7.54784C6.78846 7.48409 6.79221 7.39484 6.74121 7.34909C6.69021 7.30259 6.60471 7.31759 6.54846 7.38209ZM5.32971 12.3763C5.37175 12.4433 5.39386 12.5208 5.39346 12.5998C5.39346 12.6823 5.37096 12.7588 5.33196 12.8211L8.03346 15.6126V8.41034C7.96011 8.37803 7.89742 8.32557 7.85268 8.25906C7.80794 8.19255 7.78299 8.11472 7.78071 8.03459L6.86421 7.75334C6.83574 7.77918 6.80396 7.80112 6.76971 7.81859L5.32971 12.3763ZM13.8002 15.7213C13.9795 15.7213 14.1317 15.8376 14.1902 15.9988H15.5987C15.618 15.9451 15.648 15.8958 15.6869 15.854C15.7259 15.8122 15.7729 15.7788 15.8252 15.7558V8.41034C15.7729 8.38741 15.7258 8.35402 15.6869 8.31223C15.6479 8.27045 15.6179 8.22114 15.5987 8.16734H13.9367C13.9173 8.22101 13.8872 8.27021 13.8483 8.31196C13.8093 8.35372 13.7624 8.38718 13.7102 8.41034V11.4178C13.7662 11.4576 13.8118 11.5102 13.8431 11.5713C13.8744 11.6324 13.8906 11.7002 13.8902 11.7688C13.8914 11.8803 13.8483 11.9877 13.7704 12.0674C13.6925 12.1471 13.5862 12.1927 13.4747 12.1941C13.4195 12.1935 13.3649 12.182 13.3141 12.1603C13.2634 12.1386 13.2174 12.1071 13.1788 12.0676C13.1402 12.0281 13.1097 11.9814 13.0892 11.9301C13.0687 11.8789 13.0585 11.8241 13.0592 11.7688C13.0592 11.7163 13.0682 11.6661 13.0862 11.6188L10.5152 8.43284C10.4158 8.4557 10.3116 8.44129 10.2221 8.39235C10.1327 8.34341 10.0643 8.26335 10.03 8.16734H8.58546C8.56593 8.22108 8.53573 8.27032 8.49668 8.31208C8.45763 8.35384 8.41052 8.38726 8.35821 8.41034V15.7558C8.46321 15.8008 8.54496 15.8893 8.58546 15.9988H10.2467C10.2662 15.9451 10.2964 15.8959 10.3355 15.8541C10.3745 15.8123 10.4216 15.7789 10.474 15.7558V12.7033C10.4128 12.6649 10.3624 12.6116 10.3275 12.5484C10.2926 12.4851 10.2743 12.4141 10.2745 12.3418C10.2738 12.2866 10.284 12.2317 10.3046 12.1804C10.3251 12.129 10.3556 12.0823 10.3943 12.0428C10.433 12.0033 10.479 11.9718 10.5299 11.9501C10.5808 11.9285 10.6354 11.9171 10.6907 11.9166C10.7589 11.9168 10.826 11.9336 10.8862 11.9656C10.9464 11.9976 10.9979 12.0437 11.0363 12.1001C11.0747 12.1564 11.0988 12.2212 11.1066 12.289C11.1143 12.3567 11.1054 12.4253 11.0807 12.4888L13.693 15.7363C13.728 15.727 13.764 15.7219 13.8002 15.7213ZM13.9802 18.7566C13.8902 18.7566 13.8152 18.8241 13.8152 18.9081C13.8152 18.9921 13.8902 19.0588 13.9802 19.0588C14.0725 19.0588 14.1475 18.9913 14.1475 18.9088C14.1475 18.8263 14.0725 18.7566 13.981 18.7566H13.9802ZM13.6345 16.1466C13.6345 16.2403 13.7087 16.3161 13.7995 16.3161C13.8216 16.316 13.8435 16.3115 13.8639 16.3029C13.8843 16.2944 13.9028 16.2818 13.9183 16.2661C13.9338 16.2503 13.9461 16.2317 13.9544 16.2112C13.9627 16.1907 13.9669 16.1687 13.9667 16.1466C13.9669 16.1245 13.9628 16.1026 13.9545 16.0822C13.9462 16.0617 13.934 16.0431 13.9186 16.0274C13.9031 16.0116 13.8847 15.9991 13.8644 15.9905C13.8441 15.9818 13.8223 15.9773 13.8002 15.9771C13.7558 15.9777 13.7134 15.9959 13.6823 16.0276C13.6513 16.0594 13.6341 16.1022 13.6345 16.1466ZM10.5242 12.3418C10.5242 12.4356 10.5992 12.5113 10.6907 12.5113C10.7822 12.5113 10.8565 12.4356 10.8565 12.3418C10.8565 12.2473 10.7822 12.1723 10.6907 12.1723C10.5992 12.1723 10.5242 12.2473 10.5242 12.3418ZM10.6367 15.9771C10.6146 15.9773 10.5928 15.9818 10.5725 15.9905C10.5522 15.9991 10.5338 16.0116 10.5184 16.0274C10.5029 16.0431 10.4907 16.0617 10.4824 16.0822C10.4742 16.1026 10.47 16.1245 10.4702 16.1466C10.4702 16.2403 10.5452 16.3161 10.6367 16.3161C10.7282 16.3161 10.8025 16.2403 10.8025 16.1466C10.8028 16.1246 10.7987 16.1027 10.7905 16.0822C10.7823 16.0618 10.7702 16.0432 10.7548 16.0274C10.7394 16.0117 10.721 15.9991 10.7008 15.9905C10.6805 15.9818 10.6587 15.9773 10.6367 15.9771ZM10.7987 15.7558C10.8883 15.7951 10.9615 15.8641 11.006 15.9512C11.0506 16.0382 11.0637 16.138 11.0432 16.2336L13.738 18.5713C13.7625 18.5571 13.7884 18.5453 13.8152 18.5361L13.6772 16.5531C13.5917 16.525 13.5173 16.4705 13.4648 16.3975C13.4122 16.3244 13.3842 16.2366 13.3847 16.1466C13.3847 16.0716 13.4035 16.0018 13.4372 15.9418L10.855 12.7318C10.8368 12.7398 10.818 12.7464 10.7987 12.7513V15.7558ZM16.1537 16.1458C16.1539 16.1239 16.1498 16.1021 16.1416 16.0817C16.1333 16.0614 16.1212 16.0428 16.1058 16.0271C16.0904 16.0115 16.0721 15.999 16.0518 15.9904C16.0316 15.9818 16.0099 15.9773 15.988 15.9771C15.9659 15.9773 15.9441 15.9818 15.9238 15.9905C15.9035 15.9991 15.8851 16.0116 15.8696 16.0274C15.8541 16.0431 15.8419 16.0617 15.8337 16.0822C15.8254 16.1026 15.8213 16.1245 15.8215 16.1466C15.8215 16.2403 15.8965 16.3161 15.988 16.3161C16.0795 16.3161 16.1545 16.2403 16.1545 16.1466L16.1537 16.1458ZM4.37121 13.8801C4.43871 13.8688 4.48146 13.7908 4.46721 13.7068C4.45221 13.6221 4.38696 13.5628 4.32021 13.5748C4.25271 13.5861 4.21071 13.6648 4.22496 13.7488C4.23846 13.8336 4.30446 13.8928 4.37121 13.8801ZM19.3502 9.59459C19.2962 9.61184 19.2677 9.68234 19.288 9.75059C19.3082 9.81884 19.369 9.86009 19.423 9.84284C19.4785 9.82559 19.5055 9.75509 19.486 9.68684C19.4665 9.61784 19.405 9.57734 19.351 9.59459H19.3502Z" fill="#36A9CF"/>
</svg>

<svg width="24" height="24" viewBox="0 0 24 24" fill="none"><path fill="#36a9cf" fill-rule="evenodd" d="M19.733 13.856c.132.058.18.237.11.4a.33.33 0 0 1-.26.208l-1.668 3.078a.4.4 0 0 1-.122.381.4.4 0 0 1-.322.126l-3.254 1.948a.39.39 0 0 1-.307.245c-.16.03-.314-.028-.387-.137l-3.824-.268a.4.4 0 0 1-.338.07c-.189-.04-.32-.191-.312-.346l-2.954-2.132a.4.4 0 0 1-.345-.105c-.13-.117-.176-.287-.126-.416L4.409 14.09c-.133-.026-.248-.157-.278-.33a.41.41 0 0 1 .122-.379l.179-4.265a.41.41 0 0 1-.053-.387c.06-.175.205-.285.348-.277L7.916 5.11c-.028-.157.092-.324.28-.384a.4.4 0 0 1 .353.048l4.588-.834c.06-.135.227-.215.409-.183.165.029.289.142.318.273l2.12 1.209a.43.43 0 0 1 .354.043.44.44 0 0 1 .215.321l.912.614a.4.4 0 0 1 .345.067c.17.123.232.338.135.48l-.006.008 1.337 2.61c.128-.018.258.081.305.238.05.172-.02.347-.157.39-.137.045-.289-.058-.34-.23l-.008-.037-2.752-1.474a.4.4 0 0 1-.173.141v7.346a.425.425 0 0 1 .244.48l1.117 1.14a.35.35 0 0 1 .181-.026l1.688-2.982a.34.34 0 0 1-.016-.321c.072-.164.237-.249.368-.19m.003.356c.028-.066.008-.137-.044-.16-.053-.023-.119.011-.148.076-.028.066-.009.137.045.16.052.023.117-.01.147-.076m-1.999 3.594c.06-.06.07-.148.023-.198s-.134-.04-.195.018c-.06.06-.07.15-.023.2.047.049.135.04.195-.02m-.472-.187.008-.018-1.071-1.09a.4.4 0 0 1-.436-.005.4.4 0 0 1-.152-.174h-1.439a.42.42 0 0 1-.172.186l.14 2.03a.4.4 0 0 1 .143.101zm-3.126 2.09 2.6-1.558-2.37.82a.39.39 0 0 1-.234.263l-.072.423a.3.3 0 0 1 .076.051m-.243.403c.082-.015.138-.083.126-.152-.012-.067-.09-.11-.172-.094-.082.015-.139.082-.127.15.013.069.09.112.172.096m-.379-.299a.4.4 0 0 1 .22-.172l.068-.401a.4.4 0 0 1-.16-.107l-2.983.482zm-2.79-3.252-.97 2.863 3.761-.607-2.661-2.31a.4.4 0 0 1-.13.054m-1.249 2.667.925-2.73a.4.4 0 0 1-.14-.167H8.57l-.035.06zm-.115.55c.083.019.16-.022.174-.09.015-.067-.04-.136-.122-.155-.083-.017-.16.022-.175.09-.014.069.04.138.123.156M6.298 17.22l2.854 2.06-.902-2.713a.41.41 0 0 1-.355-.127l-1.592.694a.3.3 0 0 1-.004.086zm-.267-.449q.06.028.112.07l1.638-.712a.43.43 0 0 1 .075-.227l-2.532-2.617zm-.017.457c.045-.05.03-.14-.033-.196-.063-.057-.15-.061-.195-.01-.045.053-.031.142.032.198s.15.06.195.008m-1.343-3.25.872 2.02-.585-2.878-.23.49a.43.43 0 0 1-.057.368m-.02-3.255-.106 2.514.209-.442a.42.42 0 0 1 .017-.42zM4.5 8.735c-.03.081.001.165.065.188.065.023.138-.024.166-.105s-.002-.165-.066-.188c-.065-.022-.138.024-.167.105zm.632 3.865c0-.086-.062-.155-.137-.155s-.138.07-.138.155c0 .086.062.155.138.155.075 0 .137-.069.137-.155M4.96 8.935a.45.45 0 0 1-.103.17l.217 2.993L6.41 7.876l-1.428.97a.5.5 0 0 1-.021.09m2.27-2.688L5.404 8.159l.935-.634a.45.45 0 0 1 .333-.37zm.94-.906L6.98 7.278a.3.3 0 0 1 .035.175l.882.27a.41.41 0 0 1 .672.111h1.476a.42.42 0 0 1 .292-.232l.802-1.706a.4.4 0 0 1-.083-.194l-2.45-.543a.43.43 0 0 1-.232.168.44.44 0 0 1-.204.015m.043-.49c-.08.025-.129.1-.11.166.021.066.102.1.181.075.08-.025.13-.1.11-.165-.02-.067-.1-.1-.18-.075M12.9 4.28l-3.699.673 1.935.428a.41.41 0 0 1 .469-.144zm.454.072-1.38 1.02 3.784.105.009-.028-2.006-1.143a.4.4 0 0 1-.32.071.4.4 0 0 1-.087-.025m.179-.464c-.083-.015-.16.029-.171.098-.012.067.044.135.128.15.082.015.159-.029.17-.098.013-.067-.045-.135-.127-.15m2.424 2.044a.5.5 0 0 1-.131-.122l-3.947-.11a.4.4 0 0 1-.016.07l1.593 1.837a.416.416 0 0 1 .465.23h1.693a.42.42 0 0 1 .2-.202zm.03 1.918a.17.17 0 0 0-.165.17c0 .094.075.17.165.17a.17.17 0 0 0 .167-.17.17.17 0 0 0-.166-.17m.074-2.4c-.04.072-.01.17.07.216.078.048.177.028.217-.045.042-.072.011-.168-.068-.216-.08-.047-.177-.027-.219.045m2.937 3.989-2.72-3.44-.138 1.626a.43.43 0 0 1 .263.36zm-1.72-2.998-.61-.41 1.97 2.566-.959-1.716a.44.44 0 0 1-.222-.081c-.127-.091-.195-.233-.18-.359zm.285-.043c-.039.057-.015.143.054.192.068.05.156.043.195-.015.039-.056.015-.142-.053-.19-.07-.05-.157-.044-.195.014zM13.386 8.02c0 .091.07.165.162.165a.165.165 0 0 0 .162-.165.165.165 0 0 0-.163-.167.165.165 0 0 0-.162.167m.089 3.58a.17.17 0 0 0-.167.169c0 .094.075.17.167.17a.17.17 0 0 0 .118-.05.17.17 0 0 0 .047-.12.167.167 0 0 0-.165-.17M11.302 5.58c0 .094.074.17.166.17a.17.17 0 0 0 .166-.17.17.17 0 0 0-.166-.17.17.17 0 0 0-.166.17m.122.478-.761 1.616a.426.426 0 0 1 .115.56l2.535 3.142a.4.4 0 0 1 .072-.022V8.41a.425.425 0 0 1-.193-.61l-1.545-1.78a.4.4 0 0 1-.223.04m-1.17 1.96c0 .094.075.17.166.17a.17.17 0 0 0 .166-.17.17.17 0 0 0-.166-.17.17.17 0 0 0-.166.17m-2.22 0c0 .092.071.166.161.166s.163-.074.163-.165a.164.164 0 0 0-.163-.167.164.164 0 0 0-.162.167m.161 7.958a.167.167 0 0 0-.165.17c0 .093.074.17.165.17a.17.17 0 0 0 .155-.106.2.2 0 0 0 .012-.064.167.167 0 0 0-.167-.17M6.548 7.382c-.054.065-.059.154-.007.2.05.045.136.031.192-.034.055-.064.06-.153.008-.199-.05-.046-.136-.031-.193.033M5.33 12.376a.4.4 0 0 1 .063.224.4.4 0 0 1-.061.221l2.701 2.792V8.41a.42.42 0 0 1-.252-.375l-.917-.282a.4.4 0 0 1-.094.066zm8.47 3.345c.18 0 .332.117.39.278h1.41a.42.42 0 0 1 .226-.243V8.41a.42.42 0 0 1-.226-.243h-1.662a.42.42 0 0 1-.227.243v3.008a.43.43 0 0 1 .18.35.42.42 0 0 1-.415.426.42.42 0 0 1-.389-.575l-2.57-3.186a.416.416 0 0 1-.486-.266H8.585a.42.42 0 0 1-.227.243v7.346a.42.42 0 0 1 .227.243h1.662a.42.42 0 0 1 .227-.243v-3.053a.426.426 0 0 1-.17-.523.418.418 0 0 1 .777.309l2.612 3.247a.5.5 0 0 1 .107-.015m.18 3.036c-.09 0-.165.067-.165.151s.075.15.165.15c.092 0 .168-.067.168-.15s-.075-.151-.167-.151m-.346-2.61c0 .093.075.17.165.17a.17.17 0 0 0 .168-.17.17.17 0 0 0-.103-.156.2.2 0 0 0-.064-.014.17.17 0 0 0-.166.17m-3.11-3.805c0 .094.075.17.167.17a.17.17 0 0 0 .165-.17.167.167 0 0 0-.165-.17.17.17 0 0 0-.167.17m.113 3.635a.17.17 0 0 0-.155.105.17.17 0 0 0 .155.235.17.17 0 0 0 .165-.17.167.167 0 0 0-.165-.17m.162-.221a.424.424 0 0 1 .244.478l2.695 2.337a.4.4 0 0 1 .077-.035l-.138-1.983a.425.425 0 0 1-.24-.611l-2.582-3.21a.4.4 0 0 1-.056.02zm5.355.39a.17.17 0 0 0-.166-.169.17.17 0 0 0-.154.105.2.2 0 0 0-.012.065c0 .093.075.17.166.17a.17.17 0 0 0 .166-.17zM4.37 13.88c.068-.011.11-.09.096-.173-.015-.085-.08-.144-.147-.132s-.11.09-.095.174c.013.085.08.144.146.131m14.98-4.285c-.055.017-.083.087-.063.156.02.068.081.11.135.092.056-.017.083-.088.063-.156-.02-.07-.081-.11-.135-.092" clip-rule="evenodd"/></svg>
